src/community/images/chat-with-us-on-slack.svg

<svg fill="none" height="310" viewBox="0 0 465 310" width="465" xmlns="http://www.w3.org/2000/svg"><path d="m0 0h465v310h-465z" fill="#912b88"/><rect fill="#3f133c" height="223" rx="4" width="309" x="74" y="42"/><path d="m74 46c0-2.2091 1.7909-4 4-4h301c2.209 0 4 1.7909 4 4v19h-309z" fill="#2f0e2d"/><circle cx="83.5" cy="53.5" fill="#d4351c" r="3.5"/><circle cx="95.5" cy="53.5" fill="#fd0" r="3.5"/><circle cx="107.5" cy="53.5" fill="#00703c" r="3.5"/><path d="m141 65h242v196c0 2.209-1.791 4-4 4h-238z" fill="#fff"/><path d="m163 212h88v12h-88z" fill="#d9d9d9"/><path d="m141 96h242" stroke="#f5f5f5" stroke-linejoin="round" stroke-miterlimit="1.30541" stroke-width="2"/><rect fill="#0b0c0c" height="30" rx="6" width="30" x="92" y="77"/><rect fill="#5694ca" height="30" rx="6" width="30" x="92" y="128"/><rect fill="#4c2c92" height="29" rx="4" width="29" x="154" y="107"/><rect fill="#f47738" height="18" rx="2" width="18" x="154" y="72"/><rect fill="#f47738" height="18" rx="2" width="18" x="198" y="177"/><rect height="37" rx="8.5" stroke="#fff" stroke-width="3" width="37" x="88.5" y="73.5"/><path d="m107 177v14" stroke="#b1b4b6" stroke-linecap="round" stroke-linejoin="round" stroke-miterlimit="1.30541" stroke-width="2"/><path d="m100 184h14" stroke="#b1b4b6" stroke-linecap="round" stroke-linejoin="round" stroke-miterlimit="1.30541" stroke-width="2"/><path d="m183 77h68v8h-68z" fill="#0b0c0c"/><circle cx="170" cy="88" fill="#00703c" r="3.5" stroke="#fff"/><path d="m198 107h74v12h-74z" fill="#0b0c0c"/><g fill="#b1b4b6"><path d="m198 141h128v12h-128z"/><path d="m198 124h128v12h-128z"/><path d="m198 158h88v12h-88z"/><path d="m154 252h43v4h-43z"/></g><rect height="39" rx="1" stroke="#d9d9d9" stroke-width="2" width="215" x="155" y="204"/><path clip-rule="evenodd" d="m98.9212 87.9474c.6892.2954 1.5168-.0394 1.7918-.7287.296-.7089-.039-1.5361-.7678-1.8118-.7089-.2757-1.4967.0591-1.7921.7681-.2757.6892.0591 1.477.7681 1.7724zm-3.151 1.8315c.709.2954 1.5361-.0394 1.8118-.7287.2954-.709-.0394-1.5361-.768-1.7921-.709-.2954-1.4967.0394-1.7921.7484-.2757.6892.0591 1.477.7483 1.7724zm-.9059 3.4857c.6893.2954 1.5164-.0394 1.7921-.7484.2954-.7089-.0394-1.5164-.768-1.7921-.6893-.2954-1.4967.0591-1.7921.7484-.2757.6892.0591 1.4967.768 1.7921zm7.5427-4.2144c.689.2954 1.516-.0394 1.792-.7483.295-.709-.039-1.5164-.768-1.7921-.709-.2954-1.497.059-1.792.7483-.256.709.079 1.5164.768 1.7921zm12.682-1.1028c-.709.2954-1.536-.0394-1.792-.7287-.295-.7089.04-1.5361.749-1.8118s1.516.0591 1.811.7681c.256.6892-.078 1.477-.768 1.7724zm3.132 1.8315c-.709.2954-1.517-.0394-1.792-.7287-.296-.709.039-1.5361.728-1.7921.709-.2954 1.517.0394 1.812.7484.295.6892-.059 1.477-.748 1.7724zm.925 3.4857c-.709.2954-1.536-.0394-1.812-.7484-.295-.7089.04-1.5164.768-1.7921.709-.2954 1.517.0591 1.812.7484.256.6892-.079 1.4967-.768 1.7921zm-7.562-4.2144c-.709.2954-1.536-.0394-1.812-.7483-.276-.709.04-1.5164.768-1.7921.709-.2954 1.517.059 1.812.7483.276.709-.059 1.5164-.768 1.7921zm-3.86-3.5645 1.753.9256v-2.5798l-1.753.5514c-.039-.0591-.098-.1182-.177-.1773l.709-2.2056h-2.521l.689 2.2056c-.059.0591-.118.0985-.177.1773l-1.733-.5514v2.5798l1.733-.9256c.059.0591.118.1379.177.1773l-.984 3.0327v.0197c-.04.1576-.079.3151-.079.4727 0 .8074.61 1.477 1.378 1.5951h.04c.059 0 .138.0197.197.0197.078 0 .138 0 .197-.0197h.039c.788-.1181 1.398-.8074 1.398-1.5951 0-.1576-.019-.3348-.079-.4727v-.0197l-1.004-3.0327c.079-.0394.138-.1182.197-.1773zm-.729 14.7893c3.329 0 6.46.217 9.276.631.788-3.3286 1.753-5.2585 2.757-6.5977l-1.891-.6696c.197.965.217 1.418 0 2.0088-.295-.2757-.59-.8469-.827-1.7134l-.925 3.0328c.551-.3939.984-.6302 1.477-.6499-.867 1.8512-1.97 2.3435-2.679 2.2057-.846-.1576-1.24-.9059-1.102-1.5558.197-.9256 1.122-1.1619 1.575-.0985.847-1.7133-.591-2.245-1.497-1.733 1.399-1.4179 1.556-2.6586.414-4.1553-1.575 1.2013-1.595 2.4223-.886 4.0963-.926-1.0635-2.383-.4924-1.871 1.2209.669-1.024 1.556-.3938 1.418.6105-.118.8468-1.261 1.5361-2.659 1.4179-2.028-.1772-2.146-1.5754-2.205-2.7176.492-.0985 1.398.3545 2.166 1.4376l.256-3.2297c-.808.8665-1.576 1.0437-2.422 1.0634.275-.8665 1.575-2.2844 1.575-2.2844h-4.017s1.26 1.4179 1.555 2.2844c-.827-.0197-1.575-.1969-2.422-1.0634l.276 3.2297c.768-1.0831 1.674-1.5164 2.146-1.4376-.059 1.1422-.177 2.5207-2.186 2.7176-1.417.1182-2.54-.5711-2.658-1.4179-.138-.9846.748-1.6345 1.398-.6105.532-1.7133-.906-2.2844-1.851-1.2209.729-1.674.709-2.895-.906-4.0963-1.1422 1.4967-.9847 2.7374.433 4.1553-.9253-.512-2.3433.0197-1.5161 1.733.4529-1.0831 1.3981-.8271 1.5951.0985.138.6499-.256 1.3982-1.1225 1.5558-.6893.1378-1.7724-.3545-2.6586-2.2057.4923.0197.9256.256 1.477.6499l-.9256-3.0328c-.2363.8665-.5317 1.418-.8468 1.7134-.2166-.5908-.1772-1.0438 0-2.0088l-1.8709.6696c.9847 1.3589 1.9497 3.2888 2.7571 6.5977 2.9143-.414 6.0653-.631 9.3933-.631z" fill="#fff" fill-rule="evenodd"/></svg>

<svg width="465" height="310" viewBox="0 0 465 310" fill="none" xmlns="http://www.w3.org/2000/svg">
<rect width="465" height="310" fill="#912B88"/>
<rect x="74" y="42" width="309" height="223" rx="4" fill="#3F133C"/>
<path d="M74 46C74 43.7909 75.7909 42 78 42H379C381.209 42 383 43.7909 383 46V65H74V46Z" fill="#2F0E2D"/>
<circle cx="83.5" cy="53.5" r="3.5" fill="#D4351C"/>
<circle cx="95.5" cy="53.5" r="3.5" fill="#FFDD00"/>
<circle cx="107.5" cy="53.5" r="3.5" fill="#00703C"/>
<path d="M141 65H383V261C383 263.209 381.209 265 379 265H141V65Z" fill="white"/>
<rect x="163" y="212" width="88" height="12" fill="#D9D9D9"/>
<path d="M141 96H383" stroke="#F5F5F5" stroke-width="2" stroke-miterlimit="1.30541" stroke-linejoin="round"/>
<rect x="92" y="77" width="30" height="30" rx="6" fill="#0B0C0C"/>
<rect x="92" y="128" width="30" height="30" rx="6" fill="#5694CA"/>
<rect x="154" y="107" width="29" height="29" rx="4" fill="#4C2C92"/>
<rect x="154" y="72" width="18" height="18" rx="2" fill="#F47738"/>
<rect x="198" y="177" width="18" height="18" rx="2" fill="#F47738"/>
<rect x="88.5" y="73.5" width="37" height="37" rx="8.5" stroke="white" stroke-width="3"/>
<path d="M107 177V191" stroke="#B1B4B6" stroke-width="2" stroke-miterlimit="1.30541" stroke-linecap="round" stroke-linejoin="round"/>
<path d="M100 184H114" stroke="#B1B4B6" stroke-width="2" stroke-miterlimit="1.30541" stroke-linecap="round" stroke-linejoin="round"/>
<rect x="183" y="77" width="68" height="8" fill="#0B0C0C"/>
<circle cx="170" cy="88" r="3.5" fill="#00703C" stroke="white"/>
<rect x="198" y="107" width="74" height="12" fill="#0B0C0C"/>
<rect x="198" y="141" width="128" height="12" fill="#B1B4B6"/>
<rect x="198" y="124" width="128" height="12" fill="#B1B4B6"/>
<rect x="198" y="158" width="88" height="12" fill="#B1B4B6"/>
<rect x="154" y="252" width="43" height="4" fill="#B1B4B6"/>
<rect x="155" y="204" width="215" height="39" rx="1" stroke="#D9D9D9" stroke-width="2"/>
<path fill-rule="evenodd" clip-rule="evenodd" d="M98.9212 87.9474C99.6104 88.2428 100.438 87.908 100.713 87.2187C101.009 86.5098 100.674 85.6826 99.9452 85.4069C99.2363 85.1312 98.4485 85.466 98.1531 86.175C97.8774 86.8642 98.2122 87.652 98.9212 87.9474ZM95.7702 89.7789C96.4792 90.0743 97.3063 89.7395 97.582 89.0502C97.8774 88.3412 97.5426 87.5141 96.814 87.2581C96.105 86.9627 95.3173 87.2975 95.0219 88.0065C94.7462 88.6957 95.081 89.4835 95.7702 89.7789ZM94.8643 93.2646C95.5536 93.56 96.3807 93.2252 96.6564 92.5162C96.9518 91.8073 96.617 90.9998 95.8884 90.7241C95.1991 90.4287 94.3917 90.7832 94.0963 91.4725C93.8206 92.1617 94.1554 92.9692 94.8643 93.2646ZM102.407 89.0502C103.096 89.3456 103.923 89.0108 104.199 88.3019C104.494 87.5929 104.16 86.7855 103.431 86.5098C102.722 86.2144 101.934 86.5688 101.639 87.2581C101.383 87.9671 101.718 88.7745 102.407 89.0502ZM115.089 87.9474C114.38 88.2428 113.553 87.908 113.297 87.2187C113.002 86.5098 113.337 85.6826 114.046 85.4069C114.755 85.1312 115.562 85.466 115.857 86.175C116.113 86.8642 115.779 87.652 115.089 87.9474ZM118.221 89.7789C117.512 90.0743 116.704 89.7395 116.429 89.0502C116.133 88.3412 116.468 87.5141 117.157 87.2581C117.866 86.9627 118.674 87.2975 118.969 88.0065C119.264 88.6957 118.91 89.4835 118.221 89.7789ZM119.146 93.2646C118.437 93.56 117.61 93.2252 117.334 92.5162C117.039 91.8073 117.374 90.9998 118.102 90.7241C118.811 90.4287 119.619 90.7832 119.914 91.4725C120.17 92.1617 119.835 92.9692 119.146 93.2646ZM111.584 89.0502C110.875 89.3456 110.048 89.0108 109.772 88.3019C109.496 87.5929 109.812 86.7855 110.54 86.5098C111.249 86.2144 112.057 86.5688 112.352 87.2581C112.628 87.9671 112.293 88.7745 111.584 89.0502ZM107.724 85.4857L109.477 86.4113V83.8315L107.724 84.3829C107.685 84.3238 107.626 84.2647 107.547 84.2056L108.256 82H105.735L106.424 84.2056C106.365 84.2647 106.306 84.3041 106.247 84.3829L104.514 83.8315V86.4113L106.247 85.4857C106.306 85.5448 106.365 85.6236 106.424 85.663L105.44 88.6957V88.7154C105.4 88.873 105.361 89.0305 105.361 89.1881C105.361 89.9955 105.971 90.6651 106.739 90.7832H106.779C106.838 90.7832 106.917 90.8029 106.976 90.8029C107.054 90.8029 107.114 90.8029 107.173 90.7832H107.212C108 90.6651 108.61 89.9758 108.61 89.1881C108.61 89.0305 108.591 88.8533 108.531 88.7154V88.6957L107.527 85.663C107.606 85.6236 107.665 85.5448 107.724 85.4857ZM106.995 100.275C110.324 100.275 113.455 100.492 116.271 100.906C117.059 97.5774 118.024 95.6475 119.028 94.3083L117.137 93.6387C117.334 94.6037 117.354 95.0567 117.137 95.6475C116.842 95.3718 116.547 94.8006 116.31 93.9341L115.385 96.9669C115.936 96.573 116.369 96.3367 116.862 96.317C115.995 98.1682 114.892 98.6605 114.183 98.5227C113.337 98.3651 112.943 97.6168 113.081 96.9669C113.278 96.0413 114.203 95.805 114.656 96.8684C115.503 95.1551 114.065 94.6234 113.159 95.1354C114.558 93.7175 114.715 92.4768 113.573 90.9801C111.998 92.1814 111.978 93.4024 112.687 95.0764C111.761 94.0129 110.304 94.584 110.816 96.2973C111.485 95.2733 112.372 95.9035 112.234 96.9078C112.116 97.7546 110.973 98.4439 109.575 98.3257C107.547 98.1485 107.429 96.7503 107.37 95.6081C107.862 95.5096 108.768 95.9626 109.536 97.0457L109.792 93.816C108.984 94.6825 108.216 94.8597 107.37 94.8794C107.645 94.0129 108.945 92.595 108.945 92.595H104.928C104.928 92.595 106.188 94.0129 106.483 94.8794C105.656 94.8597 104.908 94.6825 104.061 93.816L104.337 97.0457C105.105 95.9626 106.011 95.5293 106.483 95.6081C106.424 96.7503 106.306 98.1288 104.297 98.3257C102.88 98.4439 101.757 97.7546 101.639 96.9078C101.501 95.9232 102.387 95.2733 103.037 96.2973C103.569 94.584 102.131 94.0129 101.186 95.0764C101.915 93.4024 101.895 92.1814 100.28 90.9801C99.1378 92.4768 99.2953 93.7175 100.713 95.1354C99.7877 94.6234 98.3697 95.1551 99.1969 96.8684C99.6498 95.7853 100.595 96.0413 100.792 96.9669C100.93 97.6168 100.536 98.3651 99.6695 98.5227C98.9802 98.6605 97.8971 98.1682 97.0109 96.317C97.5032 96.3367 97.9365 96.573 98.4879 96.9669L97.5623 93.9341C97.326 94.8006 97.0306 95.3521 96.7155 95.6475C96.4989 95.0567 96.5383 94.6037 96.7155 93.6387L94.8446 94.3083C95.8293 95.6672 96.7943 97.5971 97.6017 100.906C100.516 100.492 103.667 100.275 106.995 100.275Z" fill="white"/>
</svg>
